X:23
T:Angeline The Baker
C:Traditional
N:Transcribed by Kim Davis
R:bluegrass
L:1/8
Q:1/4=218
M:4/4
K:D
FG|: "D"[A2D2] [B2D2] [d3D3][AD] | [B2D2] [d4D4] dB | A2 B2 d2 e2 | "G"[AD][BD] [BD][dD] [B2D2] AA | 
|"D"AA BA d2 de | fd ec d2 de | fe df "G"ed (3BdB |1 [AA]"D"[AA] [AA]B A2 AA :|2 [AA]"D"[AA] [AA]B A4 |] 
fg |: "D"ae (3faf e2 de | fd ec d2 fg | a2 (3fgf e2 d2 | "G"[AD][BD] [BD][dD] [B2D2] fg | 
|"D"[aA]e (3faf ed de | fd ec d2 de | fd ec "G"dA B2 |1 [AA]"D"[AA] [AA]B A2 fg :|2 [AA]"D"[AA] [AA]B A2 [dD][BD] |] 

